X:1
T:Orlington, 86.886
T:Orlington, 86.886
T:John Campbell (1807-1860)
T:Public Domain Courtesy of the Cyber Hymnal™
C:John Campbell (1807-1860)
Z:Public Domain
Z:Courtesy of the Cyber Hymnal™
%%score ( 1 2 ) ( 3 4 )
L:1/8
Q:1/4=117
M:3/4
K:C
V:1 treble 
V:2 treble 
V:3 bass 
V:4 bass 
V:1
 [EG]2 | ([CE]2 [EG]2) [Ec]2 | (e2 d2) [Gc]2 | [FA]4 [FB]2 | [Ec]4 [EG]2 | ([CE]2 [EG]2) [Gc]2 | %6
 ([FA]2 [Af]2) [Fd]2 | ([Ec]2 [DB]2) [EG]2 | ([EG]>[FA] [EG]2) [DF]2 | ([DF]2 [CE]2) [Ac]2 | %10
 ([Ac]2 [GB]2) [FA]2 | ([FA]2 [EG]2) G2 | [Gc]4 [Gd]2 | [Ge]4 [Ac]2 | [Af]4 [Ge]2 | [Gd]4 G2 | %16
 (A2 B2) [Gc]2 | ([Fd]2 [Ec]2) [DB]2 | [Ec]4 |] %19
V:2
 x2 | x6 | G4 x2 | x6 | x6 | x6 | x6 | x6 | x6 | x6 | x6 | x4 G2 | x6 | x6 | x6 | x4 G2 | F4 x2 | %17
 x6 | x4 |] %19
V:3
 [C,G,]2 | [C,G,]4 [C,G,]2 | ([C,C]2 [D,B,]2) [E,C]2 | ([F,C]2 [D,D]2) [G,D]2 | [C,C]4 [C,C]2 | %5
 [C,C]4 [E,C]2 | [F,C]4 [F,A,]2 | G,4 z2 | z6 | z6 | z6 | z4 B,2 | [C,C]4 [G,B,]2 | C4 [A,C]2 | %14
 [F,C]4 [C,C]2 | [G,B,]4 [E,C]2 | C2 [D,D]2 [E,C]2 | [F,A,]2 G,2 [G,,G,]2 | [C,G,]4 |] %19
V:4
 x2 | x6 | x6 | x6 | x6 | x6 | x6 | G,4 x2 | x6 | x6 | x6 | x4 (G,F,) | x6 | C4 x2 | x6 | x6 | %16
 F,E, x4 | x2 G,2 x2 | x4 |] %19

